X:1
T:Title
L:1/8
Q:1/4=180
M:4/2
K:D
V:1 treble nm="Church Organ, Staff"
V:1
 A4 D4 E4 =F4 | G2 A2 d4 =c4 A4 | ^A4 =A4 =F4 D4 | E2 =F2 G4 D4 E4 |[Q:1/4=220] A4 d4 d4 c4 | %5
w: By~Charles~Vincent,~Mus.~D * * *|||||
 B4 A4 A4 G4 | F4 G4 F4 E4 | F2 G2 A4 G4 F4 | A4 B4 c4 d4 | D4 E4- E3/2 z/ F2 D4 |] %10
w: |||||

